material/.icons/material/valve-open.svg

<svg xmlns="http://www.w3.org/2000/svg" viewBox="0 0 24 24"><path d="M4 22H2V2h2m18 0h-2v20h2M11 4v5.18a3 3 0 000 5.64V20h2v-5.18a3 3 0 000-5.64V4z"/></svg>

<?xml version="1.0" encoding="UTF-8"?><!DOCTYPE svg PUBLIC "-//W3C//DTD SVG 1.1//EN" "http://www.w3.org/Graphics/SVG/1.1/DTD/svg11.dtd"><svg xmlns="http://www.w3.org/2000/svg" xmlns:xlink="http://www.w3.org/1999/xlink" version="1.1" id="mdi-valve-open" width="24" height="24" viewBox="0 0 24 24"><path d="M4 22H2V2H4M22 2H20V22H22M11 4V9.18A3 3 0 0 0 11 14.82V20H13V14.82A3 3 0 0 0 13 9.18V4Z" /></svg>
